app/assets/images/icons/purchase.svg

<?xml version="1.0" encoding="UTF-8" standalone="no"?>
<svg width="30px" height="30px" viewBox="0 0 30 30" version="1.1" xmlns="http://www.w3.org/2000/svg" xmlns:xlink="http://www.w3.org/1999/xlink">
    <!-- Generator: Sketch 3.7.2 (28276) - http://www.bohemiancoding.com/sketch -->
    <title>purchase</title>
    <desc>Created with Sketch.</desc>
    <defs></defs>
    <g id="Icons" stroke="none" stroke-width="1" fill="none" fill-rule="evenodd">
        <g id="purchase" fill="#050505">
            <path d="M15,30 C23.2842712,30 30,23.2842712 30,15 C30,6.71572875 23.2842712,0 15,0 C6.71572875,0 0,6.71572875 0,15 C0,23.2842712 6.71572875,30 15,30 Z M15,28 C22.1797017,28 28,22.1797017 28,15 C28,7.82029825 22.1797017,2 15,2 C7.82029825,2 2,7.82029825 2,15 C2,22.1797017 7.82029825,28 15,28 Z M11,18 C11,19.8638394 12.2747728,21.4299397 14,21.8739825 L14,23 C14,23.5522847 14.4477153,24 15,24 C15.5522847,24 16,23.5522847 16,23 L16,21.8739825 C17.7252272,21.4299397 19,19.8638394 19,18 C19,15.790861 17.209139,14 15,14 C13.8954305,14 13,13.1045695 13,12 C13,10.8954305 13.8954305,10 15,10 C16.1045695,10 17,10.8954305 17,12 C17,12.5522847 17.4477153,13 18,13 C18.5522847,13 19,12.5522847 19,12 C19,10.1361606 17.7252272,8.57006028 16,8.12601749 L16,7 C16,6.44771525 15.5522847,6 15,6 C14.4477153,6 14,6.44771525 14,7 L14,8.12601749 C12.2747728,8.57006028 11,10.1361606 11,12 C11,14.209139 12.790861,16 15,16 C16.1045695,16 17,16.8954305 17,18 C17,19.1045695 16.1045695,20 15,20 C13.8954305,20 13,19.1045695 13,18 C13,17.4477153 12.5522847,17 12,17 C11.4477153,17 11,17.4477153 11,18 L11,18 Z" id="Oval-15"></path>
        </g>
    </g>
</svg>

<?xml version="1.0" encoding="UTF-8" standalone="no"?>
<svg width="30" height="30" viewBox="0 0 30 30" xmlns="http://www.w3.org/2000/svg">
  <path d="M15 30c8.284 0 15-6.716 15-15 0-8.284-6.716-15-15-15C6.716 0 0 6.716 0 15c0 8.284 6.716 15 15 15zm0-2c7.18 0 13-5.82 13-13S22.18 2 15 2 2 7.82 2 15s5.82 13 13 13zm-4-10a4.002 4.002 0 0 0 3 3.874V23a1 1 0 0 0 2 0v-1.126A4.002 4.002 0 0 0 15 14a2 2 0 1 1 2-2 1 1 0 0 0 2 0 4.002 4.002 0 0 0-3-3.874V7a1 1 0 0 0-2 0v1.126A4.002 4.002 0 0 0 15 16a2 2 0 1 1-2 2 1 1 0 0 0-2 0z" fill="#050505" fill-rule="evenodd"/>
</svg>
